wp/wp-content/themes/tcs-responsive/i/nav/settings.svg

<svg xmlns="http://www.w3.org/2000/svg" width="32" height="32" viewBox="0 0 32 32"><g fill="none" fill-rule="evenodd" stroke="#FFF" stroke-width="2" stroke-linecap="round" stroke-linejoin="round"><path d="M12 16a4 4 0 1 1 8 0 4 4 0 0 1-8 0z"/><path d="M31 19v-6h-3.06a1.923 1.923 0 0 1-1.789-1.223 1.923 1.923 0 0 1 .413-2.098l2.164-2.164-4.243-4.243-2.164 2.164a1.924 1.924 0 0 1-2.122.403A1.924 1.924 0 0 1 19 4.06V1h-6v3.06a1.924 1.924 0 0 1-1.223 1.789 1.924 1.924 0 0 1-2.098-.413L7.515 3.272 3.272 7.515l2.164 2.164a1.923 1.923 0 0 1 .403 2.122A1.923 1.923 0 0 1 4.06 13H1v6h3.06a1.923 1.923 0 0 1 1.789 1.223 1.923 1.923 0 0 1-.413 2.098l-2.164 2.164 4.243 4.243 2.164-2.164a1.923 1.923 0 0 1 2.098-.413l.024.01A1.923 1.923 0 0 1 13 27.94V31h6v-3.06c0-.783.475-1.482 1.199-1.779l.024-.01a1.923 1.923 0 0 1 2.098.413l2.164 2.164 4.243-4.243-2.164-2.164a1.923 1.923 0 0 1-.413-2.098l.01-.024A1.923 1.923 0 0 1 27.94 19H31z"/></g></svg>

<?xml version="1.0" encoding="UTF-8" standalone="no"?>
<svg width="32px" height="32px" viewBox="0 0 32 32" version="1.1" xmlns="http://www.w3.org/2000/svg" xmlns:xlink="http://www.w3.org/1999/xlink" xmlns:sketch="http://www.bohemiancoding.com/sketch/ns">
    <!-- Generator: Sketch 3.3.3 (12081) - http://www.bohemiancoding.com/sketch -->
    <title>nav/settings</title>
    <desc>Created with Sketch.</desc>
    <defs></defs>
    <g id="Page-1" stroke="none" stroke-width="1" fill="none" fill-rule="evenodd" sketch:type="MSPage">
        <g id="nav/settings" sketch:type="MSArtboardGroup" stroke="#F6F6F6" stroke-width="1.2" stroke-linecap="round" stroke-linejoin="round">
            <path d="M12,16 C12,13.791 13.791,12 16,12 C18.209,12 20,13.791 20,16 C20,18.209 18.209,20 16,20 C13.791,20 12,18.209 12,16 L12,16 L12,16 Z" id="Stroke-211" sketch:type="MSShapeGroup"></path>
            <path d="M31,19 L31,13 L27.94,13 C27.157,13 26.458,12.525 26.161,11.801 C26.158,11.793 26.155,11.785 26.151,11.777 C25.854,11.056 26.012,10.23 26.564,9.679 L28.728,7.515 L24.485,3.272 L22.321,5.436 C21.77,5.987 20.944,6.146 20.223,5.849 C20.215,5.845 20.207,5.842 20.199,5.839 C19.476,5.542 19,4.843 19,4.06 L19,1 L13,1 L13,4.06 C13,4.843 12.524,5.542 11.801,5.839 C11.793,5.842 11.785,5.845 11.777,5.849 C11.056,6.146 10.23,5.987 9.679,5.436 L7.515,3.272 L3.272,7.515 L5.436,9.679 C5.988,10.23 6.146,11.056 5.849,11.777 C5.845,11.785 5.842,11.793 5.839,11.801 C5.542,12.525 4.843,13 4.06,13 L1,13 L1,19 L4.06,19 C4.843,19 5.542,19.475 5.839,20.199 C5.842,20.207 5.845,20.215 5.849,20.223 C6.146,20.944 5.988,21.77 5.436,22.321 L3.272,24.485 L7.515,28.728 L9.679,26.564 C10.23,26.012 11.056,25.854 11.777,26.151 L11.801,26.161 C12.525,26.458 13,27.157 13,27.94 L13,31 L19,31 L19,27.94 C19,27.157 19.475,26.458 20.199,26.161 L20.223,26.151 C20.944,25.854 21.77,26.012 22.321,26.564 L24.485,28.728 L28.728,24.485 L26.564,22.321 C26.012,21.77 25.854,20.944 26.151,20.223 C26.155,20.215 26.158,20.207 26.161,20.199 C26.458,19.475 27.157,19 27.94,19 L31,19 L31,19 Z" id="Stroke-213" sketch:type="MSShapeGroup"></path>
        </g>
    </g>
</svg>
